X: 2610
T: Baltimore
R: jig
M: 6/8
K: Gmajor
B2B ABA|G2G GAB|cBc cde|A2A ABc|
BcB dcB|Bce d2B|A2c B2A|A2G G3|
B2D DEF|G2G GAB|cBc cde|A2A ABc|
BcB dcB|Bce d2B|A2c B2A|A2G G3|

